X:333
T: Was mu gedenken ich (4-32), S. 45
N: P0593
O: Lothringen
S: PINCK, Louis: Verklingende Weisen Bd 4, Kassel 1939]
R: ???, Tod]
M: 4/4
L: 1/8
K: G
G4 | GAB2A2A2 | G3A
B4 | c2d2c2B2 | A2z2
B2BA | GGG2c2e2 | d3
cB2B2 | AGG2A2A2 | G2z2

@@@ Tune index: 7883
